X: 7
T:
T:Rondo
M:2/4
L:1/16
K:G bass
%1
"Allegro"d3c | B2d2b2a2 | .g2.B2 d4 | e2d2.A2.f2 | a2g2d3c | B2d2b2a2 | g2B2 d4 | A2c2d2f2 |
